smart-card-off.svg

<svg fill="currentColor" viewBox="0 0 24 24"><path d="M2.39 1.73 1.11 3l.16.16A2.08 2.08 0 0 0 0 5v14a2.07 2.07 0 0 0 2 2h17.11l1.73 1.73 1.27-1.27zM14 18H2v-1c0-2 4-3.09 6-3.09S14 15 14 17zm-6-6c-1.66 0-3-1.34-3-3 0-.6.18-1.16.5-1.62l4.12 4.12c-.46.32-1.02.5-1.62.5m14-9H6.2l3.68 3.68c.16.13.31.28.44.44L23.5 20.29c.29-.35.5-.79.5-1.29V5a2.074 2.074 0 0 0-2-2m-1 10h-4v-3h4z"/></svg>

<svg  viewBox="0 0 24 24" fill="currentColor"><path  d="M2.39 1.73L1.11 3L1.27 3.16C.545 3.47 .028 4.17 0 5V19C.036 20.09 .911 20.96 2 21H19.11L20.84 22.73L22.11 21.46L2.39 1.73M14 18H2V17C2 15 6 13.91 8 13.91S14 15 14 17V18M8 12C6.34 12 5 10.66 5 9C5 8.4 5.18 7.84 5.5 7.38L9.62 11.5C9.16 11.82 8.6 12 8 12M22 3H6.2L9.88 6.68C10.04 6.81 10.19 6.96 10.32 7.12L23.5 20.29C23.79 19.94 24 19.5 24 19V5C23.96 3.91 23.09 3.04 22 3M21 13H17V10H21V13Z"/></svg>
